icons/arrow-large-right.svg

<svg xmlns="http://www.w3.org/2000/svg" width="24" height="24" viewBox="0 0 24 24">
  <path d="M14.1276181,2.72442324 L14.2218254,2.80761184 L22.7071068,11.2928932 C22.735544,11.3213305 22.7622766,11.3514725 22.7871379,11.3831528 L22.7071068,11.2928932 C22.7451777,11.3309641 22.7795372,11.371341 22.8101853,11.4135743 C22.8245831,11.4335467 22.8384932,11.4543017 22.8516276,11.4755862 C22.8613648,11.4912297 22.8701866,11.5064512 22.8785739,11.5218466 C22.8879406,11.5391439 22.8971507,11.5572989 22.9058129,11.5757622 C22.9147866,11.5948444 22.9230835,11.6141449 22.9307447,11.6336374 C22.9372717,11.6501498 22.9434743,11.6672299 22.9492179,11.6845196 C22.954874,11.7017685 22.9600203,11.7188351 22.9647011,11.7360021 C22.9704401,11.756709 22.9754783,11.7778335 22.9798348,11.7992059 C22.9832818,11.8165462 22.9863441,11.8338932 22.9889467,11.8512957 C22.9921295,11.8721228 22.9946202,11.8934218 22.9964311,11.9149143 C22.9978699,11.9322977 22.9988882,11.9496288 22.9994578,11.9669718 C22.9998183,11.9777892 23,11.9888734 23,12 L22.9994578,12.0330282 C22.9988858,12.0504453 22.9978612,12.0678504 22.996384,12.0852242 L23,12 C23,12.0506203 22.9962388,12.1003621 22.9889807,12.1489612 C22.9863322,12.1662152 22.9832041,12.1839059 22.979598,12.2015183 C22.9754159,12.2223635 22.9705665,12.2427148 22.965106,12.2628145 C22.9602745,12.2803548 22.954859,12.2983389 22.9489267,12.316189 C22.9431898,12.3335527 22.9371193,12.3502364 22.9306242,12.3667063 C22.9231947,12.3855721 22.9150274,12.4045951 22.9062428,12.423401 C22.8960049,12.4452036 22.8849663,12.4667113 22.8731893,12.4877497 L22.8732648,12.4877715 L22.8596192,12.5114029 C22.8571725,12.5155088 22.8546938,12.5196009 22.8521831,12.5236789 C22.8398809,12.5434998 22.8268429,12.5630943 22.8131491,12.5821867 C22.8039771,12.5951131 22.79405,12.6082645 22.7837553,12.6212195 C22.7823674,12.6228806 22.7813409,12.6241661 22.7803112,12.625449 L22.7071068,12.7071068 L14.2218254,21.1923882 C13.8313011,21.5829124 13.1981361,21.5829124 12.8076118,21.1923882 C12.4471279,20.8319042 12.4193983,20.2646731 12.7244232,19.8723819 L12.8076118,19.7781746 L19.585,12.9997186 L2,13 C1.44771525,13 1,12.5522847 1,12 C1,11.4871642 1.38604019,11.0644928 1.88337887,11.0067277 L2,11 L19.585,10.9997186 L12.8076118,4.22182541 C12.4170876,3.83130112 12.4170876,3.19813614 12.8076118,2.80761184 C13.1680958,2.44712788 13.7353269,2.41939835 14.1276181,2.72442324 Z"/>
</svg>

<svg xmlns="http://www.w3.org/2000/svg" viewBox="0 0 24 24">
  <path d="m14.13 2.72.1.09 8.48 8.48a1 1 0 0 1 .08.1l-.08-.1A1 1 0 0 1 23 12v.03a1 1 0 0 1 0 .06V12a1 1 0 0 1-.13.49l-.01.02a1 1 0 0 1-.08.11l-.07.09-8.49 8.48a1 1 0 0 1-1.5-1.32l.09-.1L19.59 13H2a1 1 0 0 1-.12-2H19.6l-6.8-6.78a1 1 0 0 1 1.32-1.5z"/>
</svg>
